www/img/tab-icons/ico-receive-selected.svg

<svg width="22" height="22" xmlns="http://www.w3.org/2000/svg">

 <g>
  <title>background</title>
  <rect fill="none" id="canvas_background" height="402" width="582" y="-1" x="-1"/>
 </g>
 <g>
  <title>Layer 1</title>
  <rect fill="#f2ca80" id="svg_1" height="7.3" width="7.3" class="st0" y="1.2" x="13.5"/>
  <rect fill="#f2d7a4" id="svg_2" height="7.3" width="7.3" class="st0" y="13.5" x="1.2"/>
  <rect fill="#f2d7a4" id="svg_3" height="7.3" width="7.3" class="st0" y="1.2" x="1.2"/>
  <path fill="#e1990f" id="svg_4" d="m9.7,9.7l-9.7,0l0,-9.7l9.7,0l0,9.7zm-8.5,-1.2l7.3,0l0,-7.3l-7.3,0l0,7.3z" class="st1"/>
  <path fill="#e1990f" id="svg_5" d="m22,9.7l-9.7,0l0,-9.7l9.7,0l0,9.7zm-8.5,-1.2l7.3,0l0,-7.3l-7.3,0l0,7.3z" class="st1"/>
  <path fill="#e1990f" id="svg_6" d="m9.7,22l-9.7,0l0,-9.7l9.7,0l0,9.7zm-8.5,-1.2l7.3,0l0,-7.3l-7.3,0l0,7.3z" class="st1"/>
  <polygon fill="#e1990f" id="svg_7" points="22,17.6 20.8,17.6 20.8,13.5 18.2,13.5 18.2,16.3 13.2,16.3 13.2,12.9 14.4,12.9 14.4,15.1 17,15.1  17,12.3 22,12.3 " class="st1"/>
  <polygon fill="#e1990f" id="svg_8" points="21.4,22 13.2,22 13.2,19.5 14.4,19.5 14.4,20.8 21.4,20.8 " class="st1"/>
  <rect fill="#e1990f" id="svg_9" height="2.2" width="2.2" class="st1" y="3.8" x="3.8"/>
  <rect fill="#e1990f" id="svg_10" height="2.2" width="2.2" class="st1" y="3.8" x="16"/>
  <rect fill="#e1990f" id="svg_11" height="2.2" width="2.2" class="st1" y="16" x="3.8"/>
 </g>
</svg>

<?xml version="1.0" encoding="utf-8"?>
<svg version="1.1" id="QR_Icon" xmlns="http://www.w3.org/2000/svg" xmlns:xlink="http://www.w3.org/1999/xlink" x="0px" y="0px"
	 viewBox="0 0 22 22" style="enable-background:new 0 0 22 22;" xml:space="preserve">
<style type="text/css">
	.st0{fill:#D5DFFF;}
	.st1{fill:#647ce8;}
</style>
<rect x="13.5" y="1.2" class="st0" width="7.3" height="7.3"/>
<rect x="1.2" y="13.5" class="st0" width="7.3" height="7.3"/>
<rect x="1.2" y="1.2" class="st0" width="7.3" height="7.3"/>
<path class="st1" d="M9.7,9.7H0V0h9.7V9.7z M1.2,8.5h7.3V1.2H1.2V8.5z"/>
<path class="st1" d="M22,9.7h-9.7V0H22V9.7z M13.5,8.5h7.3V1.2h-7.3V8.5z"/>
<path class="st1" d="M9.7,22H0v-9.7h9.7V22z M1.2,20.8h7.3v-7.3H1.2V20.8z"/>
<polygon class="st1" points="22,17.6 20.8,17.6 20.8,13.5 18.2,13.5 18.2,16.3 13.2,16.3 13.2,12.9 14.4,12.9 14.4,15.1 17,15.1
	17,12.3 22,12.3 "/>
<polygon class="st1" points="21.4,22 13.2,22 13.2,19.5 14.4,19.5 14.4,20.8 21.4,20.8 "/>
<rect x="3.8" y="3.8" class="st1" width="2.2" height="2.2"/>
<rect x="16" y="3.8" class="st1" width="2.2" height="2.2"/>
<rect x="3.8" y="16" class="st1" width="2.2" height="2.2"/>
</svg>
